assets/svg/location.svg

<?xml version="1.0" encoding="UTF-8"?>
<svg width="1000px" height="1000px" viewBox="0 0 1000 1000" version="1.1" xmlns="http://www.w3.org/2000/svg" xmlns:xlink="http://www.w3.org/1999/xlink">
    <!-- Generator: sketchtool 52.4 (67378) - http://www.bohemiancoding.com/sketch -->
    <title>location</title>
    <desc>Created with sketchtool.</desc>
    <g id="新版图标" stroke="none" stroke-width="1" fill="none" fill-rule="evenodd">
        <g id="location" fill="#323233" stroke="#323233">
            <g id="圆角-其他分店-面">
                <path d="M500.000635,967.606142 C721.902557,751.691998 832.833333,556.328794 832.833333,381.537257 C832.833333,201.781204 683.821239,56.0555556 500,56.0555556 C316.178761,56.0555556 167.166667,201.781204 167.166667,381.537257 C167.166667,555.540497 278.097929,750.903987 500.000618,967.606126 Z M500,500.5 C438.358885,500.5 388.388889,450.530003 388.388889,388.888889 C388.388889,327.247774 438.358885,277.277778 500,277.277778 C561.641115,277.277778 611.611111,327.247774 611.611111,388.888889 C611.611111,450.530003 561.641115,500.5 500,500.5 Z" id="Combined-Shape"></path>
            </g>
        </g>
    </g>
</svg>

<svg width="1000" height="1000" xmlns="http://www.w3.org/2000/svg"><path d="M500 967.606C721.904 751.692 832.834 556.33 832.834 381.537c0-179.756-149.012-325.481-332.833-325.481-183.821 0-332.833 145.725-332.833 325.481 0 174.003 110.93 369.367 332.834 586.07zm0-467.106c-61.641 0-111.611-49.97-111.611-111.611 0-61.641 49.97-111.611 111.611-111.611 61.641 0 111.611 49.97 111.611 111.61 0 61.642-49.97 111.612-111.611 111.612z" fill="#323233" stroke="#323233" fill-rule="evenodd"/></svg>
